X:1
T:C Major Genevan Exiles, 1560
T:William Whittingham, 1596 55. 55. 55. 55.
T:Psalm 67 No copyright. Transcribed from The Scottish Psalter, 1635.
%%score [ 1 2 3 4 ]
L:1/8
M:8/4
K:C
V:1 treble nm="Treble" snm="Tr."
V:2 treble nm="Counter" snm="C."
V:3 treble-8 nm="Tenor" snm="T."
V:4 bass nm="Bass" snm="B."
V:1
 G4 A4 A2 B2 c4 | d4 ^c4 f2 f2 e4 || c4 c4 B2 A4 ^G2 | A4 A2 c4 B2 c4 || c4 e2 e2 d4 d4 | %5
w: 1.~Our God that is Lord,|And au- thor of grace,|Turn to us poor souls|His mer- ci- ful face.|His bles- sings in- crease,|
w: 2.~That while on this earth|We wan- der and walk,|Thy ways may be known|In thought, deed, and talk.|And how Thy great love|
 B4 c2 A4 d2 ^c4 || e4 e2 d2 c4 A4 |[M:10/4] c2 d4 c4 B2 c8 |] %8
w: De- fend us with might,|And show us His love,|And coun- te- nance bright.|
w: To man- kind is bent,|Since Thy sa- ving health|To all folk is sent.|
V:2
 D4 F4 F2 F2 A4 | G4 A4 A2 _B2 c4 || A4 G4 G2 E2 E4 | E2 F4 C2 G4 E4 || E4 E2 G4 D2 F4 | %5
w: 3.~The peo- ple there- fore,|O God, let them praise|Thy won- der- ful works|And mer- ci- ful ways:|Yea, let all the world,|
w: 4.~O let the whole world|Be glad and re- joice,|And praise Thee their God|With heart and with voice:|For Thou shalt judge all|
 G4 E2 F4 F2 A4 || c4 c2 A2 A4 F4 |[M:10/4] E2 D4 F2 G4 E8 |] %8
w: Both far, wide, and near|Praise Thee, their Lord God,|With rev- erence and fear.|
w: With judg- ment most right,|And like- wise on earth|Shall rule by Thy might.|
V:3
 G4 c4 d2 d2 e4 | d4 e4 f2 f2 g4 || f4 e4 d2 c2 B4 | c4 f2 f2 d4 c4 || G4 c2 c2 B4 A4 | %5
w: 5.~O sov- e- reign God,|Whose works pass all fame,|Let all peo- ple praise|Thy glo- ri- ous name:|All peo- ple, I say,|
w: 6.~So shalt Thou then cause|The earth fruit to bear|Most plen- ti- ful- ly,|And ev- e- ry- where:|And God, ev- en God|
 G4 c4 d2 d2 e4 || c4 g2 f2 e4 d4 |[M:10/4] c2 f4 f2 d4 c8 |] %8
w: In ev- er- y place,|Let them give Thee praise,|And ex- tol Thy grace.|
w: On whom we do cal,|His bles- sings shall give,|And pros- per us all.|
V:4
 G,4 F,4 D,2 D,2 A,4 | _B,4 A,4 D2 D2 C4 || F,4 C,4 G,2 A,2 E,4 | A,4 A,2 A,2 G,4 C,4 || %4
w: 7.~So then shall we feel|God's bles- sings each one:|And so of His grace|There shall com- plain none.|
 C,4 C,2 C,2 G,4 D,4 | G,4 C,2 F,4 D,2 A,4 || C4 C2 D2 A,4 D,4 |[M:10/4] A,2 _B,4 A,2 G,4 C,8 |] %8
w: Then all the world's ends,|And coun- tries through- out,|His mar- ve- lous power|Shall fear and re- doubt.|

